files/icons/dumbbell.svg

<svg width="91" height="50" viewBox="0 0 91 50" fill="none" xmlns="http://www.w3.org/2000/svg">
<path d="M90.8643 26.2192C90.8643 25.4909 90.716 24.6169 90.716 23.8886C90.716 23.0146 90.8643 21.995 90.2711 21.2667C89.3813 20.1014 87.6017 20.2471 86.2671 20.2471C86.2671 18.2078 86.1187 16.1685 86.1187 14.1292C86.1187 12.6726 86.5636 10.342 85.6738 9.03106C84.1909 6.99179 80.0385 7.28311 77.5174 7.13745C77.5174 6.84613 77.5174 6.40914 77.5174 6.11782C77.0725 0.873975 74.1065 0 68.916 0C63.2807 0 61.7977 1.89361 61.3528 7.42877C61.0562 11.7986 60.9079 16.1685 60.9079 20.3927C55.4208 20.8297 49.6371 20.2471 44.2984 20.2471C39.5528 20.2471 34.9555 20.3927 30.2099 20.5384C30.2099 16.1685 30.0616 11.9443 29.765 7.57444C29.3201 2.18493 27.8371 0.14566 22.2018 0.14566C18.1977 0.14566 14.1936 0.582651 13.6004 4.95252C13.4521 5.68083 13.4521 6.5548 13.4521 7.28311C10.931 7.28311 7.07523 7.13745 5.59224 8.88539C3.81264 11.216 4.55415 17.1881 4.55415 19.9557C4.55415 20.1014 4.55415 20.1014 4.55415 20.2471C3.36775 20.2471 2.03305 20.1014 1.14326 20.5384C-0.488035 21.2667 0.105167 24.0343 0.105167 25.4909C0.105167 26.9475 -0.339717 29.2781 1.43987 29.5694C2.32967 29.7151 3.36776 29.8608 4.25755 29.7151C4.25755 33.0653 4.40585 36.5612 5.29564 39.4745C6.18544 43.2617 9.89292 43.2617 13.4521 43.2617C13.4521 43.6987 13.4521 44.2813 13.6004 44.7183C14.0453 49.3795 16.7147 49.8165 20.8671 49.8165C23.5365 49.8165 27.8371 50.8361 29.4684 48.0685C30.3582 46.4663 30.2099 43.6987 30.2099 41.9507C30.3582 38.1635 30.3582 34.3763 30.2099 30.5891C30.2099 30.2977 30.2099 30.0064 30.2099 29.7151C40.2943 29.5694 50.6752 30.1521 60.7596 29.5694C60.7596 32.9197 60.7596 36.4156 60.7596 39.7658C60.7596 41.9507 60.463 44.7183 61.2045 46.9032C62.3909 50.5448 66.6916 49.6708 69.9541 49.6708C73.5133 49.6708 76.6276 49.8165 77.5174 45.7379C77.6657 44.864 77.814 43.99 77.814 43.116C81.2249 43.116 84.9324 42.9704 85.8222 39.4745C86.5636 36.7069 86.7119 33.3567 86.5636 30.1521C87.75 30.1521 89.0847 30.1521 89.9745 29.7151C91.3092 29.2781 91.0126 27.5302 90.8643 26.2192ZM2.18137 27.8215C2.03307 26.9475 2.18137 25.9279 2.18137 25.0539C2.18137 24.4713 2.18137 24.0343 2.18137 23.4516C2.18137 23.306 2.32967 22.5776 2.18137 22.5776C2.47797 22.432 3.36776 22.5776 3.51605 22.5776C3.81265 22.5776 4.25755 22.5776 4.55415 22.5776C4.55415 24.3256 4.40586 26.2192 4.40586 28.1128C3.66436 28.1128 2.92287 27.9671 2.18137 27.8215ZM7.22354 38.0178C6.77864 36.4156 6.92694 34.6676 6.92694 33.0653C6.63034 28.8411 6.63035 24.4713 6.63035 20.1014C6.63035 17.6251 6.33375 14.5662 6.92694 12.09C7.66844 9.17672 10.4861 9.46805 13.3038 9.46805C13.1555 14.2749 13.6004 19.0818 13.6004 23.743C13.4521 29.5694 13.1555 35.5416 13.4521 41.3681C10.1895 41.5137 8.26163 41.6594 7.22354 38.0178ZM28.1337 43.8443C27.9854 46.0293 28.282 47.6316 25.9093 48.2142C24.5746 48.5055 22.6467 48.2142 21.312 48.2142C18.7909 48.2142 16.4181 47.0489 15.6766 44.5726C15.2317 42.679 15.6766 39.9115 15.6766 38.0178C15.6766 33.3567 15.5283 28.6955 15.6766 24.0343C15.6766 20.9754 15.6766 17.9165 15.5283 14.8575C15.5283 12.3813 15.6766 10.0507 15.6766 7.57444C15.6766 3.4959 18.346 2.62192 22.0535 2.62192C23.8331 2.62192 26.2058 3.49589 27.2439 5.09818C27.8371 5.97215 27.5405 8.30275 27.5405 9.46805C27.6888 11.7986 27.6888 14.2749 27.8371 16.6055C27.9854 21.121 28.1337 25.7822 28.1337 30.2978C28.282 34.6676 28.4303 39.3288 28.1337 43.8443ZM30.3582 27.9671C30.3582 26.2192 30.3582 24.4713 30.3582 22.7233C34.9555 22.5776 39.7011 22.5777 44.4467 22.432C49.9337 22.432 55.7174 23.0146 61.0562 22.5776C61.0562 24.3256 61.0562 26.0735 61.0562 27.8215C50.8235 28.4041 40.4426 27.9671 30.3582 27.9671ZM75.5895 14.2749C75.4412 17.3338 75.4412 20.3927 75.4412 23.4516C75.5895 27.8215 75.4412 32.1914 75.4412 36.5612C75.4412 41.3681 76.9242 47.6316 69.9541 47.7772C68.7677 47.7772 66.6916 48.2142 65.5052 47.7772C62.3909 46.4663 62.9841 43.99 62.8358 41.5137C62.6875 37.1439 62.6875 32.9197 62.8358 28.5498C62.8358 24.0343 62.9841 19.6644 63.1324 15.1489C63.2807 10.342 61.7977 2.03927 68.916 2.03927C73.0684 2.03927 74.6997 3.49589 75.4412 7.7201C75.8861 9.90503 75.7378 12.2356 75.5895 14.2749ZM84.1909 33.5023C84.1909 34.9589 84.3392 36.7069 83.8943 38.0178C83.0045 41.3681 80.78 41.2224 77.814 41.2224C77.814 39.0375 77.5174 36.8526 77.6657 34.8133C77.6657 31.0261 77.6657 27.2388 77.6657 23.4516C77.5174 18.6448 77.9623 13.9836 77.814 9.17672C79.1487 9.17672 80.4834 9.17672 81.6698 9.46805C84.0426 10.0507 84.0426 10.342 84.1909 12.8183C84.4875 16.0229 84.1909 19.3731 84.3392 22.432C84.3392 26.3649 84.3392 29.8608 84.1909 33.5023ZM86.5636 28.2585C86.4154 26.3649 86.4153 24.4713 86.4153 22.7233C86.4153 22.5776 86.4153 22.432 86.4153 22.432C86.8602 22.432 87.3051 22.432 87.8983 22.432C88.6398 22.432 88.6398 22.2863 88.7881 22.869C88.9364 23.306 88.7881 24.0343 88.7881 24.4713C88.7881 25.0539 88.9364 25.6366 88.9364 26.2192C88.9364 26.6562 88.9364 27.0932 88.9364 27.6758C88.9364 27.6758 88.9364 27.9672 88.9364 28.1128H88.7881C87.8983 28.1128 87.3051 28.1128 86.5636 28.2585Z" fill="#2B3541"/>
<path d="M17.9013 7.28305C16.8632 9.61365 17.1598 12.5269 17.4564 15.0032C17.6047 16.3141 19.6809 16.3141 19.5326 15.0032C19.236 12.8182 18.9394 10.0506 19.8292 7.8657C20.4224 6.55474 18.3462 6.11775 17.9013 7.28305Z" fill="#2B3541"/>
<path d="M20.7188 4.22424C19.3841 4.22424 19.3841 6.26351 20.7188 6.26351C22.0535 6.26351 22.0535 4.22424 20.7188 4.22424Z" fill="#2B3541"/>
<path d="M65.8017 6.40912C65.0602 7.42875 65.0602 8.88537 64.9119 10.0507C64.7636 11.5073 64.6153 12.9639 64.7636 14.4205C64.9119 15.7315 66.9881 15.7315 66.8398 14.4205C66.6915 13.2552 66.8398 11.9443 66.8398 10.779C66.9881 9.75935 66.9881 8.30272 67.5813 7.42875C68.3228 6.26345 66.5432 5.24382 65.8017 6.40912Z" fill="#2B3541"/>
<path d="M68.7676 3.78723C67.4329 3.78723 67.4329 5.8265 68.7676 5.8265C70.1023 5.8265 70.1023 3.78723 68.7676 3.78723Z" fill="#2B3541"/>
</svg>

<svg xmlns="http://www.w3.org/2000/svg" width="91" height="50" fill="none" viewBox="0 0 91 50"><path fill="#2b3541" d="M90.864 26.22c0-.73-.148-1.603-.148-2.331 0-.874.148-1.894-.445-2.622-.89-1.166-2.67-1.02-4.004-1.02 0-2.04-.148-4.078-.148-6.118 0-1.456.445-3.787-.445-5.098-1.483-2.04-5.636-1.748-8.157-1.894v-1.02C77.073.875 74.107 0 68.916 0c-5.635 0-7.118 1.894-7.563 7.429-.297 4.37-.445 8.74-.445 12.964-5.487.437-11.27-.146-16.61-.146-4.745 0-9.343.146-14.088.291 0-4.37-.148-8.594-.445-12.964-.445-5.39-1.928-7.428-7.563-7.428-4.004 0-8.008.437-8.602 4.807-.148.728-.148 1.602-.148 2.33-2.521 0-6.377-.146-7.86 1.602-1.78 2.331-1.038 8.303-1.038 11.07v.292c-1.186 0-2.521-.146-3.41.291-1.632.729-1.039 3.496-1.039 4.953s-.445 3.787 1.335 4.078c.89.146 1.928.292 2.818.146 0 3.35.148 6.846 1.038 9.76.89 3.787 4.597 3.787 8.156 3.787 0 .437 0 1.02.148 1.456.445 4.661 3.115 5.098 7.267 5.098 2.67 0 6.97 1.02 8.601-1.748.89-1.602.742-4.37.742-6.117q.222-5.682 0-11.362v-.874c10.084-.146 20.465.437 30.55-.146v10.197c0 2.185-.297 4.952.445 7.137 1.186 3.642 5.487 2.768 8.75 2.768 3.558 0 6.673.145 7.562-3.933.149-.874.297-1.748.297-2.622 3.41 0 7.118-.146 8.008-3.642.742-2.767.89-6.117.742-9.322 1.186 0 2.52 0 3.41-.437 1.335-.437 1.039-2.185.89-3.496M2.181 27.821c-.148-.874 0-1.894 0-2.768v-1.602c0-.146.149-.874 0-.874.297-.146 1.187 0 1.335 0h1.038c0 1.748-.148 3.641-.148 5.535-.742 0-1.483-.146-2.225-.291m5.043 10.196c-.445-1.602-.297-3.35-.297-4.953C6.63 28.84 6.63 24.47 6.63 20.1c0-2.476-.296-5.535.297-8.011.741-2.913 3.56-2.622 6.377-2.622-.149 4.807.296 9.614.296 14.275-.148 5.826-.444 11.799-.148 17.625-3.262.146-5.19.291-6.228-3.35m20.91 5.826c-.149 2.185.148 3.788-2.225 4.37-1.334.291-3.262 0-4.597 0-2.521 0-4.894-1.165-5.635-3.641-.445-1.894 0-4.662 0-6.555 0-4.661-.149-9.323 0-13.984 0-3.059 0-6.117-.149-9.176 0-2.477.149-4.807.149-7.284 0-4.078 2.669-4.952 6.377-4.952 1.78 0 4.152.874 5.19 2.476.593.874.297 3.205.297 4.37.148 2.33.148 4.807.296 7.137.148 4.516.297 9.177.297 13.693.148 4.37.296 9.03 0 13.546m2.224-15.877v-5.244c4.598-.145 9.343-.145 14.089-.291 5.487 0 11.27.583 16.61.146v5.244c-10.233.582-20.614.145-30.699.145M75.59 14.275c-.149 3.059-.149 6.118-.149 9.177.148 4.37 0 8.74 0 13.11 0 4.806 1.483 11.07-5.487 11.215-1.186 0-3.262.437-4.449 0-3.114-1.31-2.52-3.787-2.67-6.263-.148-4.37-.148-8.594 0-12.964 0-4.516.15-8.886.297-13.401.149-4.807-1.334-13.11 5.784-13.11 4.152 0 5.784 1.457 6.525 5.681.445 2.185.297 4.516.148 6.555m8.6 19.227c0 1.457.15 3.205-.296 4.516-.89 3.35-3.114 3.204-6.08 3.204 0-2.184-.297-4.37-.148-6.409V23.452c-.149-4.807.296-9.468.148-14.275 1.335 0 2.67 0 3.856.291 2.373.583 2.373.874 2.52 3.35.297 3.205 0 6.555.15 9.614 0 3.933 0 7.429-.15 11.07m2.374-5.244c-.149-1.893-.149-3.787-.149-5.535v-.291h1.483c.742 0 .742-.146.89.437.148.437 0 1.165 0 1.602 0 .583.148 1.166.148 1.748v1.894h-.148c-.89 0-1.483 0-2.224.146"/><path fill="#2b3541" d="M17.901 7.283c-1.038 2.33-.741 5.244-.445 7.72.149 1.311 2.225 1.311 2.077 0-.297-2.185-.594-4.952.296-7.137.593-1.311-1.483-1.748-1.928-.583m2.818-3.059c-1.335 0-1.335 2.04 0 2.04s1.334-2.04 0-2.04M65.802 6.41c-.742 1.019-.742 2.475-.89 3.64-.148 1.457-.297 2.914-.148 4.37.148 1.312 2.224 1.312 2.076 0-.148-1.165 0-2.476 0-3.641.148-1.02.148-2.476.741-3.35.742-1.166-1.038-2.185-1.78-1.02m2.967-2.622c-1.335 0-1.335 2.04 0 2.04s1.334-2.04 0-2.04"/></svg>
